X: 2241
T: Niel_Gows_Strathspey.
C: by Mr McIntyre
%R: strathspey
B: Niel Gow & Sons "Complete Repository" v.2 p.24 #1
Z: 2021 John Chambers <jc:trillian.mit.edu>
M: C
L: 1/8
K: C
% - - - - - - - - - -
V: 1 staves=2
f |\
e<c {c}a>e fBTB>f | e<c {c}a>e Tf3g |\
a/g/f/e/ {g}ae fBBg | {fg}a>f ec A2A ::
E |\
[AC]>[AC] {AB}c>A BFTF>B | [AC]<[AC] [AC]<[AC] {g}a>efa |\
eaca BF TFf/g/ | a/g/f/e/ {g}ac A3 :|
% - - - - - - - - - -
% Voice 2 preserves the staff layout in the book.
V: 2 clef=bass middle=d
z | a2a2 b2b2 | a2a2 d'2d'2 | c'2a2 b2b2 | a2e2 A2A :: z | A2A2 B2B2 |
A2A2 c2d2 | c2A2 B2B2 | A2E2 A2A :|


